svgs/firefox_beta.svg

<svg width="192" height="192" viewBox="0 0 192 192" fill="none" xmlns="http://www.w3.org/2000/svg">
<path fill-rule="evenodd" clip-rule="evenodd" d="M120.212 16.1183C122.026 16.4838 123.569 17.6652 124.395 19.3203C129.984 30.516 137.874 38.6827 146.12 47.2181C148.462 49.6421 150.833 52.0957 153.187 54.6569C163.623 66.0085 173 78.9555 173 98.8832C173 99.3864 172.995 99.8885 172.986 100.389C169.626 96.9661 165.394 94.4021 160.649 93.0577C159.127 80.7904 152.788 71.9528 144.353 62.7786C142.404 60.6586 140.307 58.4944 138.135 56.2521C131.332 49.2319 123.788 41.4453 117.713 31.848C116.219 33.5288 114.546 35.5564 112.876 37.866C108.679 43.6705 104.817 50.8256 103.488 58.4751C121.408 61.1236 135.809 74.576 139.859 92.0001H127.406C123.207 79.2243 111.181 70.0001 97 70.0001C93.6863 70.0001 91 67.3138 91 64.0001C91 50.6331 97.3312 38.8855 103.151 30.8354C106.109 26.7446 109.058 23.4381 111.272 21.1482C112.382 20.0002 113.316 19.0994 113.984 18.4748C114.319 18.1623 114.587 17.9183 114.779 17.7464C114.875 17.6605 114.952 17.5925 115.009 17.543L115.078 17.4826L115.101 17.4628L115.109 17.4556L115.113 17.4526C115.114 17.4513 115.116 17.4501 119.027 22.0001L115.116 17.4501C116.519 16.2443 118.399 15.7529 120.212 16.1183ZM90.0817 163.734C91.4328 168.445 93.9874 172.648 97.3915 175.988C96.9286 175.996 96.4648 176 96 176C53.4648 176 19 141.464 19 98.8832C19 74.3925 30.4061 52.5637 48.1688 38.4458C49.8967 37.0725 52.239 36.7587 54.2675 37.6289C56.2959 38.499 57.6828 40.4125 57.8784 42.611L58.7839 52.7845L67.3666 46.0981C69.1751 44.6892 71.6283 44.4339 73.688 45.4403C75.7478 46.4467 77.0541 48.5388 77.0541 50.8312C77.0541 60.9959 78.4738 66.4295 81.2235 70.3027C84.0641 74.3039 88.9854 77.6076 98.4656 81.8807C101.044 83.0427 102.46 85.847 101.866 88.6116C101.272 91.3763 98.8278 93.3507 96 93.3507C95.3303 93.3507 93.6767 93.6784 91.2215 94.7947C88.9032 95.8489 86.3365 97.3945 83.963 99.268C81.5774 101.151 79.5555 103.232 78.1736 105.291C77.0334 106.989 76.4716 108.452 76.3034 109.648C78.3861 115.603 83.0804 120.318 89 122.43V134.889C77.2671 132.341 67.8819 123.52 64.4962 112.125C64.3313 111.57 64.2476 110.994 64.2476 110.416C64.2476 105.965 65.9784 101.927 68.2106 98.6021C70.4579 95.2547 73.4348 92.2905 76.5279 89.849C78.103 88.6056 79.7518 87.4633 81.4159 86.4479C77.3731 83.8276 74.019 80.884 71.4387 77.2494C68.418 72.9945 66.7011 68.152 65.8249 62.5109L57.4712 69.0189C55.7383 70.369 53.4062 70.6641 51.3916 69.7883C49.377 68.9125 48.0021 67.0057 47.8074 64.8177L47.0283 56.0634C37.0427 67.5137 31 82.4895 31 98.8832C31 132.856 56.9643 160.739 90.0817 163.734ZM117 100C105.954 100 97 108.954 97 120V156C97 167.046 105.954 176 117 176H153C164.046 176 173 167.046 173 156V120C173 108.954 164.046 100 153 100H117ZM109 120C109 115.582 112.582 112 117 112H153C157.418 112 161 115.582 161 120V156C161 160.418 157.418 164 153 164H117C112.582 164 109 160.418 109 156V120ZM129 134H137C138.657 134 140 132.657 140 131C140 129.343 138.657 128 137 128H129V134ZM146.343 136.809C147.393 135.123 148 133.133 148 131C148 124.925 143.075 120 137 120H125C122.791 120 121 121.791 121 124V138V152C121 154.209 122.791 156 125 156H139C145.075 156 150 151.075 150 145C150 141.747 148.588 138.823 146.343 136.809ZM137 142H129V148H139C140.657 148 142 146.657 142 145C142 143.343 140.657 142 139 142H137Z" fill="black"/>
</svg>

<svg width="192" height="192" fill="none" xmlns="http://www.w3.org/2000/svg"><path fill-rule="evenodd" clip-rule="evenodd" d="M120.212 16.118a5.998 5.998 0 0 1 4.183 3.202c5.589 11.196 13.479 19.363 21.725 27.898 2.342 2.424 4.713 4.878 7.067 7.439C163.623 66.009 173 78.956 173 98.883c0 .503-.005 1.005-.014 1.506a27.989 27.989 0 0 0-12.337-7.331c-1.522-12.268-7.861-21.105-16.296-30.28-1.949-2.12-4.046-4.284-6.218-6.526-6.803-7.02-14.347-14.807-20.422-24.404a77.18 77.18 0 0 0-4.837 6.018c-4.197 5.804-8.059 12.96-9.388 20.61 17.92 2.648 32.321 16.1 36.371 33.524h-12.453C123.207 79.224 111.181 70 97 70a6 6 0 0 1-6-6c0-13.367 6.331-25.114 12.151-33.165a89.778 89.778 0 0 1 8.121-9.687 76.021 76.021 0 0 1 2.712-2.673 53.801 53.801 0 0 1 1.025-.932l.069-.06.023-.02.008-.007.004-.003c.001-.002.003-.003 3.914 4.547l-3.911-4.55a6 6 0 0 1 5.096-1.332zm-30.13 147.616a27.987 27.987 0 0 0 7.31 12.254c-.463.008-.927.012-1.392.012-42.535 0-77-34.536-77-77.117 0-24.49 11.406-46.32 29.169-60.437a6 6 0 0 1 9.71 4.165l.905 10.174 8.583-6.687a6 6 0 0 1 9.687 4.733c0 10.165 1.42 15.599 4.17 19.472 2.84 4 7.761 7.305 17.242 11.578A6 6 0 0 1 96 93.35c-.67 0-2.323.327-4.778 1.444-2.319 1.054-4.885 2.6-7.259 4.473-2.386 1.883-4.407 3.964-5.79 6.023-1.14 1.698-1.701 3.161-1.87 4.357A20.942 20.942 0 0 0 89 122.43v12.459c-11.733-2.548-21.118-11.369-24.504-22.764a6.002 6.002 0 0 1-.248-1.709c0-4.451 1.73-8.489 3.963-11.814 2.247-3.347 5.224-6.312 8.317-8.753a49.709 49.709 0 0 1 4.888-3.401c-4.043-2.62-7.397-5.564-9.977-9.199-3.021-4.254-4.738-9.097-5.614-14.738l-8.354 6.508a6 6 0 0 1-9.664-4.201l-.779-8.755C37.043 67.513 31 82.49 31 98.883c0 33.973 25.964 61.856 59.082 64.851zM117 100c-11.046 0-20 8.954-20 20v36c0 11.046 8.954 20 20 20h36c11.046 0 20-8.954 20-20v-36c0-11.046-8.954-20-20-20h-36zm-8 20a8 8 0 0 1 8-8h36a8 8 0 0 1 8 8v36a8 8 0 0 1-8 8h-36a8 8 0 0 1-8-8v-36zm20 14h8a3 3 0 1 0 0-6h-8v6zm17.343 2.809A10.95 10.95 0 0 0 148 131c0-6.075-4.925-11-11-11h-12a4 4 0 0 0-4 4v28a4 4 0 0 0 4 4h14c6.075 0 11-4.925 11-11 0-3.253-1.412-6.177-3.657-8.191zM137 142h-8v6h10a3 3 0 1 0 0-6h-2z" fill="#000"/></svg>
